src/images/techno/excel.svg

<?xml version="1.0" encoding="UTF-8"?>
<svg width="50px" height="48px" viewBox="0 0 50 48" version="1.1" xmlns="http://www.w3.org/2000/svg" xmlns:xlink="http://www.w3.org/1999/xlink">
    <!-- Generator: Sketch 51.2 (57519) - http://www.bohemiancoding.com/sketch -->
    <title>Excel</title>
    <desc>Created with Sketch.</desc>
    <defs></defs>
    <g id="Page-1" stroke="none" stroke-width="1" fill="none" fill-rule="evenodd">
        <g id="Technology-Page" transform="translate(-748.000000, -4201.000000)" fill="#000000" fill-rule="nonzero">
            <g id="API-Section" transform="translate(165.000000, 3809.000000)">
                <g id="Coding" transform="translate(583.000000, 390.000000)">
                    <g id="Excel" transform="translate(0.035997, 2.000000)">
                        <path d="M36.7639535,9.79069767 L44.6360465,9.79069767 L44.6360465,14.0697674 L36.7639535,14.0697674 M36.7639535,15.7 L44.6360465,15.7 L44.6360465,19.9790698 L36.7639535,19.9790698 M36.7639535,21.6104651 L44.6360465,21.6104651 L44.6360465,25.8895349 L36.7639535,25.8895349 M36.7639535,27.5232558 L44.6360465,27.5232558 L44.6360465,31.8023256 L36.7639535,31.8023256 M36.7639535,33.4325581 L44.6360465,33.4325581 L44.6360465,37.7116279 L36.7639535,37.7116279" id="Shape"></path>
                        <path d="M48.5430233,4.95348837 L28.372093,4.95348837 C28.3372093,4.95348837 28.3023256,4.95697674 28.2709302,4.96046512 L28.2709302,0.227906977 L0.148837209,5.19418605 L0.148837209,42.3023256 L28.2709302,47.1906977 L28.2709302,42.4581395 C28.3034884,42.4604651 28.3372093,42.4627907 28.3709302,42.4627907 L48.5418605,42.4627907 C49.2162791,42.4627907 49.7604651,41.9162791 49.7604651,41.2395349 L49.7604651,6.17790698 C49.7604651,5.50348837 49.2139535,4.95465116 48.5418605,4.95465116 L48.5430233,4.95348837 Z M15.7872093,32.0581395 L13.322093,25.8418605 L10.8081395,31.777907 L7.40581395,31.6 L11.3406977,23.727907 L7.86162791,16.0069767 L11.3034884,15.8162791 L13.4232558,21.6383721 L15.95,15.5616279 L19.4151163,15.372093 L15.3534884,23.7290698 L19.5186047,32.2639535 L15.7860465,32.0593023 L15.7872093,32.0581395 Z M48.244186,40.9813953 L28.2709302,40.9813953 L28.2709302,37.7139535 L35.1383721,37.7139535 L35.1383721,33.4348837 L28.2697674,33.4348837 L28.2697674,31.8023256 L35.1372093,31.8023256 L35.1372093,27.5232558 L28.2686047,27.5232558 L28.2686047,25.8906977 L35.1360465,25.8906977 L35.1360465,21.6116279 L28.2674419,21.6116279 L28.2674419,19.9802326 L35.1348837,19.9802326 L35.1348837,15.7011628 L28.2662791,15.7011628 L28.2662791,14.0697674 L35.1337209,14.0697674 L35.1337209,9.79069767 L28.2651163,9.79069767 L28.2651163,6.43604651 L48.244186,6.43604651 L48.244186,40.977907 L48.244186,40.9813953 Z" id="d"></path>
                    </g>
                </g>
            </g>
        </g>
    </g>
</svg>

<svg width="50" height="48" xmlns="http://www.w3.org/2000/svg">
  <g fill="#000" fill-rule="nonzero">
    <path d="M36.8 9.79h7.872v4.28H36.8m0 1.63h7.872v4.28H36.8m0 1.63h7.872v4.28H36.8m0 1.633h7.872v4.28H36.8m0 1.63h7.872v4.279H36.8"/>
    <path d="M48.579 4.953h-20.17a.922.922 0 0 0-.102.007V.228L.185 5.194v37.108l28.122 4.889v-4.733c.032.002.066.005.1.005h20.17a1.22 1.22 0 0 0 1.22-1.223V6.178c0-.675-.547-1.223-1.22-1.223l.002-.002zM15.823 32.058l-2.465-6.216-2.514 5.936-3.402-.178 3.935-7.872-3.48-7.721 3.442-.19 2.12 5.821 2.527-6.076 3.465-.19-4.062 8.357 4.166 8.535-3.733-.205h.001zm32.457 8.923H28.307v-3.267h6.867v-4.28h-6.868v-1.632h6.867v-4.279h-6.868v-1.632h6.867v-4.28h-6.869v-1.63h6.868V15.7h-6.869V14.07h6.868V9.79H28.3V6.437h19.98v34.545z"/>
  </g>
</svg>
